assets/award-fill.svg

<svg xmlns="http://www.w3.org/2000/svg" fill="none" viewBox="0 0 20 28">
  <path fill="#2A2238" fill-rule="evenodd" d="M12.9062 1.51199 9.98547 0 7.06476 1.51199l-3.25153.4935L2.33972 4.9455 0 7.25549.535522 10.5 0 13.7445l2.33972 2.31 1.47351 2.94 3.25153.4935L9.98547 21l2.92073-1.512 3.2515-.4935 1.4735-2.94 2.3398-2.31-.5355-3.2445.5355-3.24451-2.3398-2.30999-1.4735-2.94001-3.2515-.4935ZM10 19l.0426-.0001-.05713.0296-.05743-.0298L10 19Zm0-17 .0427.00009-.05723-.0296-.05749.02978L10 2Z" clip-rule="evenodd"/>
  <path fill="#2A2238" d="M2.98486 28v-7.3605l3.5315.5355 3.4685 1.7955 3.46854-1.7955 3.5315-.5355V28l-7.00004-1.75-7 1.75Z"/>
</svg>

<svg width="20" height="28" viewBox="0 0 20 28" fill="none" xmlns="http://www.w3.org/2000/svg">
<path fill-rule="evenodd" clip-rule="evenodd" d="M12.9062 1.51199L9.98547 0L7.06476 1.51199L3.81323 2.00549L2.33972 4.9455L0 7.25549L0.535522 10.5L0 13.7445L2.33972 16.0545L3.81323 18.9945L7.06476 19.488L9.98547 21L12.9062 19.488L16.1577 18.9945L17.6312 16.0545L19.971 13.7445L19.4355 10.5L19.971 7.25549L17.6312 4.9455L16.1577 2.00549L12.9062 1.51199ZM10 19L10.0426 18.9999L9.98547 19.0295L9.92804 18.9997L10 19ZM10 2L10.0427 2.00009L9.98547 1.97049L9.92798 2.00027L10 2Z" fill="#2A2238"/>
<path d="M2.98486 28V20.6395L6.51636 21.175L9.98486 22.9705L13.4534 21.175L16.9849 20.6395V28L9.98486 26.25L2.98486 28Z" fill="#2A2238"/>
</svg>
